assets/images/general/collection_paw.svg

<svg xmlns="http://www.w3.org/2000/svg" viewBox="-1 89 613 613" xmlns:v="https://vecta.io/nano"><path fill="#fff" d="M322.6 413c-1-25.8-9.5-51.6-27.4-71.1-20-22.1-49.5-40.9-79.5-44.1-96.2-10.2-41.8 69.8-21.5 114.4 18.8 41.4-22.5 140.1 45.2 140.7 33.7.4 56-23.2 67.9-52.7 6.1-15 10.2-31.2 12.7-47.3 2.1-13.6 3.1-26.9 2.6-39.9z"/><path fill="#654221" d="M467.1 342.1c3.1 3.9-7.7-10.1 0 0h0z"/><path fill="#fff" d="M410.8 326.9c-30.7 3.1-55.4 48.4-18.3 70 29 16.8 100.9-21.4 74.5-54.8-9.4-12.3-39.5-16.9-56.2-15.2z"/><path fill="#654221" d="M406.1 268.1c3 3.9-7.8-10.1 0 0h0z"/><path fill="#fff" d="M331.5 322.9c29 16.8 100.9-21.4 74.5-54.8-9.5-12.4-39.6-16.8-56.3-15.1-30.6 3.1-55.2 48.4-18.2 69.9z"/><path fill="#654221" d="M313.4 220.9c3.6 3.3-9-8.2 0 0h0z"/><path d="M251.6 285c30.2 11.4 92.2-36.7 61.7-64.1-11.1-10.2-40.2-9.5-55.9-5.2-28.4 8-44.3 55-5.8 69.3zm114.1 162.6c-19.5 38.2 25.8 62.9 53.3 49 15-7.7 37.7-27.7 39.2-43.3 3.8-42.4-77.4-35.6-92.5-5.7z" fill="#fff"/><path d="M458.1 453.2c-1.2 12.8.4-4.9 0 0h0zM405.7 543c-3.1 11.9 1.2-4.6 0 0h0z" fill="#654221"/><path fill="#fff" d="M319.1 522.6c-24.7 33 14.2 63.8 42.6 55.1 15.4-4.8 40.3-20.1 44.1-34.7 10.5-39.6-67.6-46.2-86.7-20.4z"/></svg>

<?xml version="1.0" encoding="UTF-8" standalone="no"?>
<!-- Generator: Adobe Illustrator 18.1.1, SVG Export Plug-In . SVG Version: 6.00 Build 0)  -->

<svg
   xmlns:dc="http://purl.org/dc/elements/1.1/"
   xmlns:cc="http://creativecommons.org/ns#"
   xmlns:rdf="http://www.w3.org/1999/02/22-rdf-syntax-ns#"
   xmlns:svg="http://www.w3.org/2000/svg"
   xmlns="http://www.w3.org/2000/svg"
   xmlns:sodipodi="http://sodipodi.sourceforge.net/DTD/sodipodi-0.dtd"
   xmlns:inkscape="http://www.inkscape.org/namespaces/inkscape"
   version="1.1"
   id="Layer_2"
   x="0px"
   y="0px"
   viewBox="-1 89 613 613"
   enable-background="new -1 89 613 613"
   xml:space="preserve"
   inkscape:version="0.91 r13725"
   sodipodi:docname="collection_paw_1.svg"><metadata
     id="metadata37"><rdf:RDF><cc:Work
         rdf:about=""><dc:format>image/svg+xml</dc:format><dc:type
           rdf:resource="http://purl.org/dc/dcmitype/StillImage" /><dc:title></dc:title></cc:Work></rdf:RDF></metadata><defs
     id="defs35" /><sodipodi:namedview
     pagecolor="#ffffff"
     bordercolor="#666666"
     borderopacity="1"
     objecttolerance="10"
     gridtolerance="10"
     guidetolerance="10"
     inkscape:pageopacity="0"
     inkscape:pageshadow="2"
     inkscape:window-width="1366"
     inkscape:window-height="705"
     id="namedview33"
     showgrid="false"
     inkscape:zoom="0.38499184"
     inkscape:cx="306.49999"
     inkscape:cy="306.5"
     inkscape:window-x="0"
     inkscape:window-y="0"
     inkscape:window-maximized="1"
     inkscape:current-layer="Layer_2" /><path
     fill="#D9AA41"
     d="M306,157C174,157,67,264,67,396c0,88.6,48.2,165.9,119.8,207.3c4.2,2.3,8.4,4.7,12.7,6.8  c5.4,2.6,10.7,5.1,16.2,7.3c4.7,2,9.5,3.8,14.5,5.4c8.4,2.7,16.8,5.1,25.6,6.9c4.8,1,9.7,2,14.5,2.6c11.6,1.7,23.6,2.6,35.8,2.6  c2.1,0,4,0,6.1-0.1c30.4-0.8,59.5-7.2,86-18.4c19.6-8.2,37.9-18.9,54.4-31.9c3.8-2.9,7.4-6,11.1-9.1c4.4-3.9,8.7-8,12.9-12.3  c3.7-3.7,7-7.4,10.4-11.4c5.7-6.7,11.2-13.7,16.2-21c2.7-4,5.5-8.2,8-12.4c7.2-11.9,13.3-24.5,18.3-37.7  c10.1-26.4,15.5-55,15.5-84.9C545,264,438,157,306,157z M349.7,252.9c16.7-1.7,46.7,2.9,56.3,15.1c-7.8-10.1,3,3.9,0,0  c26.2,33.4-45.7,71.7-74.5,54.8C294.5,301.4,319.1,256.1,349.7,252.9z M257.6,215.7c15.7-4.3,44.8-5,55.9,5.2c-9-8.4,3.5,3.1,0,0  c30.4,27.4-31.6,75.5-61.7,64.1C213.1,270.7,229,223.7,257.6,215.7z M239.3,552.7c-67.6-0.8-26.2-99.3-45.2-140.7  c-20.2-44.5-74.8-124.5,21.5-114.4c30,3.1,59.5,22.1,79.5,44.1c17.8,19.7,26.4,45.3,27.4,71.1c0.5,13.1-0.7,26.5-2.7,39.8  c-2.5,16.1-6.5,32.2-12.7,47.3C295.3,529.5,273.1,553,239.3,552.7z M405.7,543c-3.8,14.5-28.6,29.9-44.1,34.7  c-28.3,8.9-67.2-21.9-42.6-55.1C338.2,496.8,416.3,503.4,405.7,543C406.9,538.4,402.6,554.9,405.7,543z M458.1,453.2  c-1.3,15.5-24.2,35.6-39.2,43.3c-27.5,14-72.7-10.7-53.3-49C380.8,417.7,462,410.9,458.1,453.2C458.5,448.3,456.9,466,458.1,453.2z   M392.6,396.9c-37.1-21.5-12.4-66.8,18.3-70c16.7-1.7,46.7,2.9,56.3,15.1c-7.8-10.1,3,3.9,0,0C493.5,375.5,421.5,413.8,392.6,396.9z  "
     id="path5"
     style="fill:none" /><path
     fill="#006553"
     d="M306,145C167.6,145,55,257.6,55,396c0,96,54,179.4,133.3,221.7c6.9,3.7,14,7,21.3,10.1  c3,1.3,6.1,2.5,9.3,3.7c9.1,3.4,18.5,6.3,28.2,8.6c1.7,0.4,3.4,0.8,5.1,1.2c16.4,3.7,33.6,5.6,51,5.7l0,0c0.9,0,1.8,0,2.7,0  c61,0,117-21.8,160.4-58.1c6-5,11.6-10.2,17.1-15.7c2.3-2.3,4.7-4.8,7-7.3c6.4-7,12.5-14.4,18.1-22.1c1.4-2,2.9-4,4.3-6.1  c9.4-13.7,17.6-28.5,24.2-44l0,0c12.8-30,19.8-63.1,19.8-97.6C557,257.6,444.4,145,306,145z M529.5,480.9  c-5,13.2-11.1,25.8-18.3,37.7c-2.5,4.2-5.2,8.4-8,12.4c-5,7.3-10.4,14.4-16.2,21c-3.4,3.9-6.8,7.7-10.4,11.4  c-4.2,4.3-8.5,8.4-12.9,12.3c-3.7,3.1-7.3,6.3-11.1,9.1c-16.6,12.9-34.9,23.6-54.4,31.9c-26.6,11.1-55.6,17.6-86,18.4  c-2.1,0-4,0.1-6.1,0.1c-12.1,0-24-0.9-35.8-2.6c-4.8-0.8-9.8-1.6-14.5-2.6c-8.7-1.8-17.2-4.2-25.6-6.9c-4.8-1.7-9.7-3.4-14.5-5.4  c-5.5-2.2-11-4.7-16.2-7.3c-4.3-2.1-8.5-4.4-12.7-6.8C115.1,562.3,67,484.9,67,396.3c0-132,107-239,239-239s239,107,239,239  C545,425.9,539.5,454.5,529.5,480.9z"
     id="path7"
     style="fill:none" /><path
     fill="#654221"
     d="M322.6,413c-1-25.8-9.5-51.6-27.4-71.1c-20-22.1-49.5-40.9-79.5-44.1c-96.2-10.2-41.8,69.8-21.5,114.4  c18.8,41.4-22.5,140.1,45.2,140.7c33.7,0.4,56-23.2,67.9-52.7c6.1-15,10.2-31.2,12.7-47.3C322.1,439.3,323.1,426,322.6,413z"
     id="path9"
     style="fill:#ffffff" /><path
     fill="#654221"
     d="M467.1,342.1C470.2,346,459.4,332,467.1,342.1L467.1,342.1z"
     id="path11" /><path
     fill="#654221"
     d="M410.8,326.9c-30.7,3.1-55.4,48.4-18.3,70c29,16.8,100.9-21.4,74.5-54.8  C457.6,329.8,427.5,325.2,410.8,326.9z"
     id="path13"
     style="fill:#ffffff" /><path
     fill="#654221"
     d="M406.1,268.1C409.1,272,398.3,258,406.1,268.1L406.1,268.1z"
     id="path15" /><path
     fill="#654221"
     d="M331.5,322.9c29,16.8,100.9-21.4,74.5-54.8c-9.5-12.4-39.6-16.8-56.3-15.1  C319.1,256.1,294.5,301.4,331.5,322.9z"
     id="path17"
     style="fill:#ffffff" /><path
     fill="#654221"
     d="M313.4,220.9C317,224.2,304.4,212.7,313.4,220.9L313.4,220.9z"
     id="path19" /><path
     fill="#654221"
     d="M251.6,285c30.2,11.4,92.2-36.7,61.7-64.1c-11.1-10.2-40.2-9.5-55.9-5.2C229,223.7,213.1,270.7,251.6,285z"
     id="path21"
     style="fill:#ffffff" /><path
     fill="#654221"
     d="M365.7,447.6c-19.5,38.2,25.8,62.9,53.3,49c15-7.7,37.7-27.7,39.2-43.3C462,410.9,380.8,417.7,365.7,447.6z"
     id="path23"
     style="fill:#ffffff" /><path
     fill="#654221"
     d="M458.1,453.2C456.9,466,458.5,448.3,458.1,453.2L458.1,453.2z"
     id="path25" /><path
     fill="#654221"
     d="M405.7,543C402.6,554.9,406.9,538.4,405.7,543L405.7,543z"
     id="path27" /><path
     fill="#654221"
     d="M319.1,522.6c-24.7,33,14.2,63.8,42.6,55.1c15.4-4.8,40.3-20.1,44.1-34.7  C416.3,503.4,338.2,496.8,319.1,522.6z"
     id="path29"
     style="fill:#ffffff" /><rect
     x="-1"
     y="89"
     fill="none"
     width="612"
     height="612"
     id="rect31" /></svg>
